public/assets/images/knowledge/git.svg

<svg enable-background="new 0 0 24 24" viewBox="0 0 24 24" xmlns="http://www.w3.org/2000/svg" xmlns:xlink="http://www.w3.org/1999/xlink"><linearGradient id="a" gradientUnits="userSpaceOnUse" x1="9.669266" x2="18.306595" y1="9.676086" y2="18.313416"><stop offset="0" stop-color="#010101" stop-opacity=".1"/><stop offset="1" stop-color="#010101" stop-opacity="0"/></linearGradient><linearGradient id="b" gradientUnits="userSpaceOnUse" x1="2.013819" x2="21.983366" y1="7.339921" y2="16.651873"><stop offset="0" stop-color="#fff" stop-opacity=".2"/><stop offset="1" stop-color="#fff" stop-opacity="0"/></linearGradient><path d="m23.5615234 10.9320221c-.0009766 0-.0009766-.0004883-.0009766-.0004883l-10.4990234-10.5058594c-.5664063-.567749-1.5576172-.5672607-2.1220703-.0004883l-10.5009765 10.506836c-.2822266.2838745-.4384766.6605835-.4384766 1.06073 0 .4006348.15625.777771.4394531 1.0611572l10.4990234 10.5058594c.2832032.2838745.6601563.4402466 1.0615235.4402466s.7783203-.1563721 1.0605469-.4397583l10.5-10.5063477c.2832031-.2833862.4394531-.6605225.4394531-1.0611572 0-.4001465-.15625-.7768555-.4384766-1.06073z" fill="#ef473b"/><path d="m23.6809692 12.6898956-10.609375 10.6157837c-.2851562.2863159-.6660766.444336-1.0715942.444336s-.786438-.15802-1.0725708-.4448242l-10.6083984-10.6152955c-.1239624-.1240845-.218689-.2683716-.2921143-.4222412.0545654.2959595.1953125.5689087.4125366.7862549l10.4990234 10.5058594c.2832032.2838745.6601563.4402466 1.0615235.4402466s.7783203-.1563721 1.0605469-.4397583l10.5-10.5063477c.2172241-.2173462.3580322-.4902954.4125977-.7862549-.0734254.1538696-.168213.2981568-.2921754.4222412z" fill="#010101" opacity=".1"/><path d="m17 10.0000153c-.3748779 0-.7219849.1100464-1.0222168.2902832l-2.2680664-2.2680664c.1801758-.3001709.2902832-.6472779.2902832-1.0222168 0-1.1030273-.8974609-2-2-2-.369873 0-.7122803.1077881-1.0098267.2835693l-2.4537353-2.4540405-.7068482.7072143 2.4536743 2.4539795c-.175537.2973633-.2832641.6395874-.2832641 1.0092774 0 .9293213.6400146 1.7053833 1.5 1.9289551v6.1420898c-.8599854.2235718-1.5.9996338-1.5 1.9289551 0 1.1030273.8974609 2 2 2s2-.8969727 2-2c0-.9293213-.6400146-1.7053833-1.5-1.9289551v-6.1420899c.1767578-.0459595.3425293-.1158447.4968872-.2055054l2.2796631 2.2796631c-.1712036.2946778-.2765503.6322022-.2765503.9968873 0 1.1030273.8974609 2 2 2s2-.8969727 2-2-.8974609-2-2-2z" fill="#fff"/><path d="m.4384766 11.1820221 10.5009765-10.5068359c.5644531-.5667725 1.5556641-.5672607 2.1220703.0004883l10.4990234 10.5058594s0 .0004883.0009766.0004883c.2523193.2537842.3969727.583252.4262695.935791.0034791-.0418702.0122071-.0825807.0122071-.1250611 0-.4001465-.15625-.7768555-.4384766-1.06073-.0009766 0-.0009766-.0004883-.0009766-.0004883l-10.4990234-10.5058594c-.5664063-.567749-1.5576172-.5672607-2.1220703-.0004883l-10.5009765 10.506836c-.2822266.2838745-.4384766.6605835-.4384766 1.06073 0 .0424194.008728.0831299.012207.124939.0293579-.3525391.1740113-.6819459.4262696-.935669z" fill="#fff" opacity=".2"/><path d="m18.5488281 10.7503815c.27771.3434448.4511719.7744751.4511719 1.2496338 0 1.1030273-.8974609 2-2 2s-2-.8969727-2-2c0-.3646851.1053467-.7022095.2765503-.9968872l-2.2796631-2.2796631c-.1543579.0896606-.3201294.1595459-.4968872.2055053v6.1420898c.8599854.2235718 1.5.9996338 1.5 1.9289551 0 1.1030273-.8974609 2-2 2-.5114746 0-.9738159-.1986694-1.3278809-.5157471l3.7318115 3.7318115 7.8029175-7.8076782zm-4.8391113-2.7281494 2.2680664 2.2680664c.3002319-.1802369.6473389-.2902832 1.0222168-.2902832.4750977 0 .90625.1735229 1.2498169.451355l-4.6776733-4.6777344-.0024415.0020141c.2654419.3394165.4302979.7609864.4302979 1.2243653 0 .3749389-.1101074.7220459-.2902832 1.0222168z" fill="url(#a)"/><path d="m23.5615234 10.9320221c-.0009766 0-.0009766-.0004883-.0009766-.0004883l-10.4990234-10.5058594c-.5664063-.567749-1.5576172-.5672607-2.1220703-.0004883l-10.5009765 10.506836c-.2822266.2838745-.4384766.6605835-.4384766 1.06073 0 .4006348.15625.777771.4394531 1.0611572l10.4990234 10.5058594c.2832032.2838745.6601563.4402466 1.0615235.4402466s.7783203-.1563721 1.0605469-.4397583l10.5-10.5063477c.2832031-.2833862.4394531-.6605225.4394531-1.0611572 0-.4001465-.15625-.7768555-.4384766-1.06073z" fill="url(#b)"/></svg>

<?xml version="1.0" ?><svg enable-background="new 0 0 24 24" id="Layer_1" version="1.1" viewBox="0 0 24 24" xml:space="preserve" xmlns="http://www.w3.org/2000/svg" xmlns:xlink="http://www.w3.org/1999/xlink"><g><path d="M23.5615234,10.9320221c-0.0009766,0-0.0009766-0.0004883-0.0009766-0.0004883L13.0615234,0.4256744   c-0.5664063-0.567749-1.5576172-0.5672607-2.1220703-0.0004883L0.4384766,10.9320221C0.15625,11.2158966,0,11.5926056,0,11.9927521   c0,0.4006348,0.15625,0.777771,0.4394531,1.0611572l10.4990234,10.5058594   C11.2216797,23.8436432,11.5986328,24.0000153,12,24.0000153s0.7783203-0.1563721,1.0605469-0.4397583l10.5-10.5063477   C23.84375,12.7705231,24,12.3933868,24,11.9927521C24,11.5926056,23.84375,11.2158966,23.5615234,10.9320221z" fill="#EF473B"/><path d="M23.6809692,12.6898956l-10.609375,10.6157837   C12.786438,23.5919952,12.4055176,23.7500153,12,23.7500153s-0.786438-0.15802-1.0725708-0.4448242L0.3190308,12.6898956   c-0.1239624-0.1240845-0.218689-0.2683716-0.2921143-0.4222412c0.0545654,0.2959595,0.1953125,0.5689087,0.4125366,0.7862549   l10.4990234,10.5058594C11.2216797,23.8436432,11.5986328,24.0000153,12,24.0000153s0.7783203-0.1563721,1.0605469-0.4397583   l10.5-10.5063477c0.2172241-0.2173462,0.3580322-0.4902954,0.4125977-0.7862549   C23.8997192,12.421524,23.8049316,12.5658112,23.6809692,12.6898956z" fill="#010101" opacity="0.1"/><path d="M17,10.0000153c-0.3748779,0-0.7219849,0.1100464-1.0222168,0.2902832l-2.2680664-2.2680664   C13.8898926,7.7220612,14,7.3749542,14,7.0000153c0-1.1030273-0.8974609-2-2-2   c-0.369873,0-0.7122803,0.1077881-1.0098267,0.2835693L8.536438,2.8295441L7.8295898,3.5367584l2.4536743,2.4539795   C10.1077271,6.2881012,10,6.6303253,10,7.0000153c0,0.9293213,0.6400146,1.7053833,1.5,1.9289551v6.1420898   C10.6400146,15.294632,10,16.070694,10,17.0000153c0,1.1030273,0.8974609,2,2,2s2-0.8969727,2-2   c0-0.9293213-0.6400146-1.7053833-1.5-1.9289551V8.9289703c0.1767578-0.0459595,0.3425293-0.1158447,0.4968872-0.2055054   l2.2796631,2.2796631C15.1053467,11.2978058,15,11.6353302,15,12.0000153c0,1.1030273,0.8974609,2,2,2s2-0.8969727,2-2   S18.1025391,10.0000153,17,10.0000153z" fill="#FFFFFF"/><path d="M0.4384766,11.1820221L10.9394531,0.6751862   c0.5644531-0.5667725,1.5556641-0.5672607,2.1220703,0.0004883l10.4990234,10.5058594c0,0,0,0.0004883,0.0009766,0.0004883   c0.2523193,0.2537842,0.3969727,0.583252,0.4262695,0.935791C23.991272,12.075943,24,12.0352325,24,11.9927521   c0-0.4001465-0.15625-0.7768555-0.4384766-1.06073c-0.0009766,0-0.0009766-0.0004883-0.0009766-0.0004883L13.0615234,0.4256744   c-0.5664063-0.567749-1.5576172-0.5672607-2.1220703-0.0004883L0.4384766,10.9320221C0.15625,11.2158966,0,11.5926056,0,11.9927521   c0,0.0424194,0.008728,0.0831299,0.012207,0.124939C0.0415649,11.765152,0.1862183,11.4357452,0.4384766,11.1820221z" fill="#FFFFFF" opacity="0.2"/><linearGradient gradientUnits="userSpaceOnUse" id="SVGID_1_" x1="9.6692657" x2="18.3065948" y1="9.6760864" y2="18.3134155"><stop offset="0" style="stop-color:#010101;stop-opacity:0.1"/><stop offset="1" style="stop-color:#010101;stop-opacity:0"/></linearGradient><path d="M18.5488281,10.7503815C18.8265381,11.0938263,19,11.5248566,19,12.0000153   c0,1.1030273-0.8974609,2-2,2s-2-0.8969727-2-2c0-0.3646851,0.1053467-0.7022095,0.2765503-0.9968872L12.9968872,8.723465   C12.8425293,8.8131256,12.6767578,8.8830109,12.5,8.9289703v6.1420898c0.8599854,0.2235718,1.5,0.9996338,1.5,1.9289551   c0,1.1030273-0.8974609,2-2,2c-0.5114746,0-0.9738159-0.1986694-1.3278809-0.5157471l3.7318115,3.7318115l7.8029175-7.8076782   L18.5488281,10.7503815z M13.7097168,8.0222321l2.2680664,2.2680664C16.2780151,10.1100616,16.6251221,10.0000153,17,10.0000153   c0.4750977,0,0.90625,0.1735229,1.2498169,0.451355l-4.6776733-4.6777344L13.5697021,5.77565   C13.835144,6.1150665,14,6.5366364,14,7.0000153C14,7.3749542,13.8898926,7.7220612,13.7097168,8.0222321z" fill="url(#SVGID_1_)"/><linearGradient gradientUnits="userSpaceOnUse" id="SVGID_2_" x1="2.0138185" x2="21.983366" y1="7.3399205" y2="16.6518726"><stop offset="0" style="stop-color:#FFFFFF;stop-opacity:0.2"/><stop offset="1" style="stop-color:#FFFFFF;stop-opacity:0"/></linearGradient><path d="M23.5615234,10.9320221c-0.0009766,0-0.0009766-0.0004883-0.0009766-0.0004883L13.0615234,0.4256744   c-0.5664063-0.567749-1.5576172-0.5672607-2.1220703-0.0004883L0.4384766,10.9320221C0.15625,11.2158966,0,11.5926056,0,11.9927521   c0,0.4006348,0.15625,0.777771,0.4394531,1.0611572l10.4990234,10.5058594   C11.2216797,23.8436432,11.5986328,24.0000153,12,24.0000153s0.7783203-0.1563721,1.0605469-0.4397583l10.5-10.5063477   C23.84375,12.7705231,24,12.3933868,24,11.9927521C24,11.5926056,23.84375,11.2158966,23.5615234,10.9320221z" fill="url(#SVGID_2_)"/></g><g/><g/><g/><g/><g/><g/><g/><g/><g/><g/><g/><g/><g/><g/><g/></svg>
